usr/share/icons/biglinux-icons-material/scalable/apps/preferences-desktop-theme-windowdecorations.svg

<?xml version="1.0" encoding="UTF-8" standalone="no"?>
<svg
   width="24"
   height="24"
   version="1.1"
   id="svg14"
   sodipodi:docname="preferences-desktop-theme-windowdecorations.svg"
   inkscape:version="1.3 (0e150ed6c4, 2023-07-21)"
   xmlns:inkscape="http://www.inkscape.org/namespaces/inkscape"
   xmlns:sodipodi="http://sodipodi.sourceforge.net/DTD/sodipodi-0.dtd"
   xmlns="http://www.w3.org/2000/svg"
   xmlns:svg="http://www.w3.org/2000/svg">
  <sodipodi:namedview
     id="namedview14"
     pagecolor="#ffffff"
     bordercolor="#000000"
     borderopacity="0.25"
     inkscape:showpageshadow="2"
     inkscape:pageopacity="0.0"
     inkscape:pagecheckerboard="0"
     inkscape:deskcolor="#d1d1d1"
     inkscape:zoom="6.3359375"
     inkscape:cx="12.784217"
     inkscape:cy="32.907522"
     inkscape:window-width="2560"
     inkscape:window-height="998"
     inkscape:window-x="0"
     inkscape:window-y="0"
     inkscape:window-maximized="1"
     inkscape:current-layer="svg14" />
  <defs
     id="defs2">
    <linearGradient
       id="a"
       x1="13.229"
       x2="2.1170001"
       y1="297"
       y2="280.07001"
       gradientTransform="matrix(1.0714,0,0,1,-0.605,-280.07)"
       gradientUnits="userSpaceOnUse">
      <stop
         stop-color="#66bcff"
         offset="0"
         id="stop1" />
      <stop
         stop-color="#b29aff"
         offset="1"
         id="stop2" />
    </linearGradient>
    <radialGradient
       id="paint0_radial_4_537"
       cx="0"
       cy="0"
       r="1"
       gradientUnits="userSpaceOnUse"
       gradientTransform="matrix(0,19.405241,-26.587216,0,12,1)"
       fx="0"
       fy="0">
      <stop
         stop-color="#68BBFF"
         stop-opacity="0.87451"
         id="stop17"
         offset="0"
         style="stop-color:#66bcff;stop-opacity:1;" />
      <stop
         offset="1"
         stop-color="#A99EFF"
         id="stop18"
         style="stop-color:#b29aff;stop-opacity:1;" />
    </radialGradient>
  </defs>
  <path
     fill-rule="evenodd"
     clip-rule="evenodd"
     d="M 9.59604,1.11359 C 9.71588,1.11486 9.83043,1.0996 9.93969,1.06779 11.3755,0.973736 12.8111,0.977551 14.2467,1.07924 c 1.3017,0.10142 2.5618,0.38384 3.7802,0.84726 2.0256,0.83394 3.4117,2.2804 4.1581,4.33936 0.4269,1.23963 0.6789,2.51435 0.7561,3.82414 0.1067,1.6447 0.0685,3.2858 -0.1146,4.9233 -0.137,1.1509 -0.4348,2.2577 -0.8935,3.3203 -0.8506,1.8425 -2.229,3.1134 -4.1352,3.8127 -1.5447,0.5219 -3.1331,0.7967 -4.7653,0.8243 C 11.1966,23.0661 9.37913,22.9287 7.57997,22.5585 4.26839,21.8208 2.22559,19.8018 1.45158,16.5017 1.12311,15.0161 0.974199,13.5124 1.00483,11.9906 0.968176,10.3724 1.14,8.77709 1.52031,7.20471 2.33171,4.11908 4.2905,2.20701 7.39669,1.46852 8.12049,1.29157 8.8536,1.17326 9.59604,1.11359 Z"
     fill="url(#paint0_radial_4_537)"
     id="path1"
     style="fill:url(#paint0_radial_4_537)" />
  <path
     opacity="0.35"
     fill-rule="evenodd"
     clip-rule="evenodd"
     d="M 11.9925,1 C 11.3082,1.00037 10.624,1.02296 9.93969,1.06779 9.83043,1.0996 9.71588,1.11486 9.59604,1.11359 8.8536,1.17326 8.12048,1.29157 7.39669,1.46852 5.82012,1.84335 4.53913,2.52051 3.55373,3.5 H 20.4508 C 19.7829,2.84132 18.975,2.31682 18.0269,1.9265 16.8085,1.46308 15.5484,1.18066 14.2467,1.07924 13.5066,1.02681 12.7664,1.0004 12.0262,1 c -0.0113,-1e-6 -0.0225,-1e-6 -0.0337,0 z"
     fill="#000000"
     id="path2-3" />
  <rect
     x="5.9870095"
     y="2.05865"
     width="1.4879427"
     height="0.74378526"
     ry="0.37282282"
     opacity="0.35"
     style="fill:#000000;stroke-width:1.40646;paint-order:stroke markers fill"
     id="rect1" />
  <rect
     x="10.139421"
     y="2.05865"
     width="3.721159"
     height="0.74378526"
     ry="0.37282282"
     opacity="0.35"
     style="fill:#000000;stroke-width:1.40646;paint-order:stroke markers fill"
     id="rect11-6" />
  <rect
     x="17.256723"
     y="2.05865"
     width="0.74378526"
     height="0.74378526"
     ry="0.37282282"
     opacity="0.35"
     style="fill:#000000;stroke-width:1.40646;paint-order:stroke markers fill"
     id="rect12-8" />
  <rect
     x="15.76878"
     y="2.05865"
     width="1.116608"
     height="0.74378526"
     ry="0.37282282"
     opacity="0.35"
     style="fill:#000000;stroke-width:1.40646;paint-order:stroke markers fill"
     id="rect13" />
  <rect
     x="14.652172"
     y="2.05865"
     width="0.74378526"
     height="0.74378526"
     ry="0.37282282"
     opacity="0.35"
     style="fill:#000000;stroke-width:1.40646;paint-order:stroke markers fill"
     id="rect14" />
  <g
     fill="#ccdfff"
     id="g19"
     transform="matrix(0.36814443,0,0,0.36814443,0.225811,1.2947371)"
     style="stroke-width:3.78">
    <rect
       x="17.000999"
       y="48.000999"
       width="5"
       height="5"
       ry="0.49900001"
       style="paint-order:stroke markers fill"
       id="rect16" />
    <rect
       x="25.334999"
       y="48.000999"
       width="5"
       height="5"
       ry="0.49900001"
       style="paint-order:stroke markers fill"
       id="rect17" />
    <rect
       x="33.668999"
       y="48.000999"
       width="5"
       height="5"
       ry="0.49900001"
       style="paint-order:stroke markers fill"
       id="rect18" />
    <rect
       x="42.002998"
       y="48.000999"
       width="5"
       height="5"
       ry="0.49900001"
       style="paint-order:stroke markers fill"
       id="rect19" />
  </g>
  <path
     id="path20"
     style="opacity:0.35;fill:#ffffff"
     d="m 5.748047,20.083984 c -0.407904,0 -0.736328,0.328426 -0.736328,0.736328 v 0.763672 c 0.749593,0.432651 1.603233,0.759615 2.568359,0.97461 1.799158,0.370199 3.617227,0.507609 5.453125,0.412109 1.632198,-0.0276 3.218974,-0.302319 4.763672,-0.824219 0.428368,-0.157149 0.830019,-0.343712 1.205078,-0.558593 v -0.767579 c 0,-0.407902 -0.328425,-0.736328 -0.736328,-0.736328 z" />
  <g
     id="g18"
     transform="matrix(0.34210526,0,0,0.34210526,-5.7894735,1.0830791)"
     style="stroke-width:2.92308">
    <rect
       x="33"
       y="18.000999"
       width="37.991001"
       height="27.819"
       ry="1.309"
       fill="#ffffff"
       opacity="0.35"
       id="rect15"
       style="stroke-width:2.92308" />
    <g
       transform="matrix(0.46937,0,0,0.4555,-189.41,-153.63)"
       fill="#ffffff"
       opacity="0.75"
       id="g17"
       style="stroke-width:2.92308">
      <ellipse
         cx="498.35001"
         cy="384.48999"
         rx="3.1960001"
         ry="3.293"
         id="ellipse15"
         style="stroke-width:2.92308" />
      <ellipse
         cx="489.82999"
         cy="384.48999"
         rx="3.1960001"
         ry="3.293"
         id="ellipse16"
         style="stroke-width:2.92308" />
      <ellipse
         cx="481.31"
         cy="384.48999"
         rx="3.1960001"
         ry="3.293"
         id="ellipse17"
         style="stroke-width:2.92308" />
    </g>
    <path
       d="m 69.691,18.002 c 0.725,0 1.309,0.583 1.309,1.309 v 25.2 c 0,0.726 -0.584,1.31 -1.309,1.31 H 52 v -27.82 z"
       fill="#ffffff"
       opacity="0.35"
       id="path17"
       style="stroke-width:2.92308" />
  </g>
</svg>

<svg xmlns="http://www.w3.org/2000/svg" width="24" height="24"><defs><radialGradient id="a" cx="0" cy="0" r="1" fx="0" fy="0" gradientTransform="matrix(0 19.40524 -26.58722 0 12 1)" gradientUnits="userSpaceOnUse"><stop offset="0" stop-color="#68BBFF" stop-opacity=".875" style="stop-color:#66bcff;stop-opacity:1"/><stop offset="1" stop-color="#A99EFF" style="stop-color:#b29aff;stop-opacity:1"/></radialGradient></defs><path fill="url(#a)" fill-rule="evenodd" d="M9.596 1.114c.12 0 .234-.014.344-.046a31.627 31.627 0 0 1 4.307.011c1.301.102 2.562.384 3.78.848 2.026.833 3.412 2.28 4.158 4.339.427 1.24.679 2.514.756 3.824a27.94 27.94 0 0 1-.114 4.923 11.876 11.876 0 0 1-.894 3.32c-.85 1.843-2.229 3.114-4.135 3.813a15.624 15.624 0 0 1-4.765.825 21.423 21.423 0 0 1-5.453-.413c-3.312-.737-5.354-2.756-6.128-6.056a19.047 19.047 0 0 1-.447-4.511 18.491 18.491 0 0 1 .515-4.786c.812-3.086 2.77-4.998 5.877-5.736a13.954 13.954 0 0 1 2.199-.355Z" clip-rule="evenodd" style="fill:url(#a)"/><path fill-rule="evenodd" d="M11.992 1c-.684 0-1.368.023-2.052.068-.11.032-.224.047-.344.046-.742.06-1.476.178-2.2.355C5.82 1.843 4.54 2.52 3.555 3.5H20.45c-.668-.659-1.476-1.183-2.424-1.573a13.537 13.537 0 0 0-3.78-.848A31.656 31.656 0 0 0 11.992 1z" clip-rule="evenodd" opacity=".35"/><rect width="1.488" height=".744" x="5.987" y="2.059" opacity=".35" ry=".373" style="fill:#000;stroke-width:1.40646;paint-order:stroke markers fill"/><rect width="3.721" height=".744" x="10.139" y="2.059" opacity=".35" ry=".373" style="fill:#000;stroke-width:1.40646;paint-order:stroke markers fill"/><rect width=".744" height=".744" x="17.257" y="2.059" opacity=".35" ry=".373" style="fill:#000;stroke-width:1.40646;paint-order:stroke markers fill"/><rect width="1.117" height=".744" x="15.769" y="2.059" opacity=".35" ry=".373" style="fill:#000;stroke-width:1.40646;paint-order:stroke markers fill"/><rect width=".744" height=".744" x="14.652" y="2.059" opacity=".35" ry=".373" style="fill:#000;stroke-width:1.40646;paint-order:stroke markers fill"/><g fill="#ccdfff" style="stroke-width:3.78" transform="matrix(.36814 0 0 .36814 .226 1.295)"><rect width="5" height="5" x="17.001" y="48.001" ry=".499" style="paint-order:stroke markers fill"/><rect width="5" height="5" x="25.335" y="48.001" ry=".499" style="paint-order:stroke markers fill"/><rect width="5" height="5" x="33.669" y="48.001" ry=".499" style="paint-order:stroke markers fill"/><rect width="5" height="5" x="42.003" y="48.001" ry=".499" style="paint-order:stroke markers fill"/></g><path d="M5.748 20.084a.735.735 0 0 0-.736.736v.764c.75.433 1.603.76 2.568.975 1.8.37 3.617.507 5.453.412a15.614 15.614 0 0 0 4.764-.825c.428-.157.83-.343 1.205-.558v-.768a.735.735 0 0 0-.736-.736z" style="opacity:.35;fill:#fff"/><g fill="#fff" style="stroke-width:2.92308" transform="matrix(.3421 0 0 .3421 -5.79 1.083)"><rect width="37.991" height="27.819" x="33" y="18.001" opacity=".35" ry="1.309" style="stroke-width:2.92308"/><g opacity=".75" style="stroke-width:2.92308" transform="matrix(.46937 0 0 .4555 -189.41 -153.63)"><ellipse cx="498.35" cy="384.49" rx="3.196" ry="3.293" style="stroke-width:2.92308"/><ellipse cx="489.83" cy="384.49" rx="3.196" ry="3.293" style="stroke-width:2.92308"/><ellipse cx="481.31" cy="384.49" rx="3.196" ry="3.293" style="stroke-width:2.92308"/></g><path d="M69.691 18.002c.725 0 1.309.583 1.309 1.309v25.2c0 .726-.584 1.31-1.309 1.31H52v-27.82z" opacity=".35" style="stroke-width:2.92308"/></g></svg>
